Assets/pieces/Dominator_White.svg

<svg xmlns="http://www.w3.org/2000/svg" viewBox="0 0 79.25 118.67"><defs><style>.cls-1{fill:#fff;}</style></defs><title>Dominator_White</title><g id="Слой_2" data-name="Слой 2"><g id="Слой_1-2" data-name="Слой 1"><path d="M66.17,115.37C63.36,117.28,60.650000000000006,117.16000000000001,57.61,115.98A108.91,108.91,0,0,0,43.9,111.45A16.7,16.7,0,0,0,35.71,111.38000000000001C28.560000000000002,113.38000000000001,21.57,116.00000000000001,13.61,118.67000000000002L12.45,109.39000000000001C10.45,109.39000000000001,8.169999999999998,109.23000000000002,5.969999999999999,109.39000000000001C0.33,109.89,-1.16,108.1,0.86,103Q10.51,78.49,20.2,54C20.87,52.3,21.39,50.54,21.96,48.81C23.53,44.010000000000005,23.2,42.870000000000005,19.37,39.81C12.270000000000001,34.1,12.260000000000002,34.08,19.6,28.96C21.5,27.64,23.540000000000003,26.53,26.26,24.86C25.22,20,24.13,14.89,23,9.76C22.82,8.95,22.51,8.18,22.27,7.38C20.28,0.78,20.94,0,28,0C35.67,0,43.33,0,51,0C57,0,57.79,1,56.26,6.7C55.08,10.88,53.93,15,53,19.23A47,47,0,0,0,52.35,24.9C56.15,27.36,59.61,29.58,63.06,31.83C65.35000000000001,33.32,65.23,34.96,63.27,36.64C62.77,37.07,62.18,37.410000000000004,61.660000000000004,37.82C55.300000000000004,42.82,55.17,43.41,58.24,51.26Q68.41,77.25999999999999,78.52000000000001,103.18C80.4,108.01,78.88000000000001,109.83000000000001,73.66000000000001,109.56C71.42000000000002,109.45,69.17000000000002,109.56,66.73000000000002,109.56ZM61.34,113.83C60.78,109.89,60.56,106.96,59.940000000000005,104.12C58.02,95.37,55.940000000000005,86.67,53.940000000000005,77.94C51.50000000000001,67.27,49.150000000000006,56.56999999999999,46.59,45.94C46.31,44.78,44.870000000000005,43.94,43.970000000000006,42.94C43.300000000000004,44.14,42.260000000000005,45.28,42.040000000000006,46.559999999999995A42.22,42.22,0,0,0,41.86,53Q41.64,77.44,41.41,101.87C41.41,104.08,41.19,106.44,43.68,107.41000000000001C49.18,109.52,54.75,111.44,61.34,113.83ZM38.17,43L35.910000000000004,42.7C31.910000000000004,54.11,29.67,66.02000000000001,26.570000000000004,77.7S20.11,101,18.09,113.79C24.4,111.56,29.68,109.68,34.97,107.79C37.83,106.79,38.379999999999995,104.66000000000001,38.4,101.9C38.51,83.9,38.76,66,38.9,48.06A33.72,33.72,0,0,0,38.17,43ZM4.26,104.94C13.73,107.78,15.99,106.42,18.119999999999997,97.94C22,82.46,26,67.07,30,51.65C30.7,48.879999999999995,31.11,46.03,31.69,43.05C27.93,42.55,27.400000000000002,44.68,26.6,46.72C19.6,64.62,12.600000000000001,82.5,5.600000000000001,100.4C5,101.87,4.69,103.43,4.26,104.94ZM24.94,3.84C27,11.75,28.86,19,30.78,26.4H39.39C47.39,26.4,47.53,26.4,49.65,18.799999999999997C50.96,14.079999999999998,51.93,9.279999999999998,53.21,3.799999999999997ZM51.55,43.46L50,43.78A47.85,47.85,0,0,0,50.6,49.29C52.24,56.74,54,64.17,55.7,71.61C58,81.79,60.29,92,62.78,102.14C63.120000000000005,103.51,64.47,105.48,65.6,105.66C68.6,106.14,71.6,105.78,75.86999999999999,105.75C67.45,84.17,59.5,63.82,51.55,43.46ZM27.8,39H50.88C48.690000000000005,30,47.88,29.48,35.74,29.75C30.91,29.85,29.2,31.76,27.8,39ZM22.75,38.63L27.7,30.14C22.9,29.32,20.9,32.01,18.28,34.4ZM59.82,35.32L59.63,33.910000000000004C57.300000000000004,32.25000000000001,55.63,29.140000000000004,50.910000000000004,30.610000000000003C52.550000000000004,33.080000000000005,53.690000000000005,35.42,55.46,37.1C55.93,37.54,58.31,36,59.82,35.32Z"/><path d="M61.34,113.83C54.75,111.44,49.18000000000001,109.52,43.68000000000001,107.38C41.190000000000005,106.38,41.39000000000001,104.05,41.410000000000004,101.83999999999999Q41.67,77.41,41.86000000000001,52.96999999999999A42.22,42.22,0,0,1,42,46.5C42.22,45.22,43.26,44.08,43.93,42.88C44.83,43.88,46.269999999999996,44.77,46.55,45.88C49.11,56.52,51.459999999999994,67.22,53.9,77.88C55.9,86.61,57.98,95.31,59.9,104.06C60.56,107,60.78,109.89,61.34,113.83Z" fill="#fff" /><path d="M38.17,43A33.72,33.72,0,0,1,38.9,48.06C38.76,66,38.51,84,38.4,101.94C38.4,104.7,37.83,106.83,34.97,107.83C29.68,109.67999999999999,24.4,111.56,18.09,113.83C20.09,101.05,23.47,89.44,26.57,77.77S31.94,54.19,35.91,42.769999999999996Z" fill="#fff" /><path d="M4.26,104.94C4.6899999999999995,103.42999999999999,5.01,101.87,5.58,100.39999999999999C12.58,82.5,19.58,64.61999999999999,26.58,46.71999999999999C27.38,44.71999999999999,27.909999999999997,42.54999999999999,31.669999999999998,43.04999999999999C31.09,46.04999999999999,30.669999999999998,48.87999999999999,29.979999999999997,51.64999999999999C26,67.07,22,82.46,18.12,97.89C16,106.42,13.73,107.78,4.26,104.94Z" fill="#fff" /><path d="M24.94,3.84H53.21C51.93,9.280000000000001,50.96,14.08,49.65,18.84C47.53,26.46,47.44,26.439999999999998,39.39,26.439999999999998H30.78C28.86,19,27,11.75,24.94,3.84Z" fill="#fff" /><path d="M51.55,43.46C59.55,63.82,67.45,84.17,75.87,105.75C71.63000000000001,105.75,68.55000000000001,106.14,65.60000000000001,105.66C64.47000000000001,105.47999999999999,63.12000000000001,103.50999999999999,62.78000000000001,102.14C60.29,92,58,81.79,55.7,71.61C54,64.17,52.24,56.74,50.61,49.29A47.85,47.85,0,0,1,50.01,43.78Z" fill="#fff" /><path d="M27.8,39C29.2,31.759999999999998,30.91,29.85,35.74,29.75C47.85,29.48,48.69,30,50.88,39Z" fill="#fff" /><path d="M22.75,38.63L18.28,34.4C20.9,32,22.9,29.32,27.7,30.14Z" fill="#fff" /><path d="M59.82,35.32C58.31,35.97,55.93,37.54,55.46,37.1C53.69,35.42,52.55,33.1,50.910000000000004,30.61C55.650000000000006,29.14,57.300000000000004,32.25,59.63,33.91Z" fill="#fff" /></g></g></svg>

<svg xmlns="http://www.w3.org/2000/svg" viewBox="0 0 79.25 118.67"><defs><style>.cls-1{fill:#fff;}</style></defs><title>Dominator_White</title><g id="Слой_2" data-name="Слой 2"><g id="Слой_1-2" data-name="Слой 1"><path d="M66.17,115.37c-2.81,1.91-5.52,1.79-8.56.61a108.91,108.91,0,0,0-13.71-4.53,16.7,16.7,0,0,0-8.19-.07c-7.15,2-14.14,4.62-22.1,7.29l-1.16-9.28c-2,0-4.28-.16-6.48,0C.33,109.89-1.16,108.1.86,103Q10.51,78.49,20.2,54c.67-1.7,1.19-3.46,1.76-5.19,1.57-4.8,1.24-5.94-2.59-9-7.1-5.71-7.11-5.73.23-10.85,1.9-1.32,3.94-2.43,6.66-4.1C25.22,20,24.13,14.89,23,9.76c-.18-.81-.49-1.58-.73-2.38C20.28.78,20.94,0,28,0c7.67,0,15.33,0,23,0,6,0,6.79,1,5.26,6.7C55.08,10.88,53.93,15,53,19.23a47,47,0,0,0-.65,5.67c3.8,2.46,7.26,4.68,10.71,6.93,2.29,1.49,2.17,3.13.21,4.81-.5.43-1.09.77-1.61,1.18-6.36,5-6.49,5.59-3.42,13.44q10.17,26,20.28,51.92c1.88,4.83.36,6.65-4.86,6.38-2.24-.11-4.49,0-6.93,0Zm-4.83-1.54c-.56-3.94-.78-6.87-1.4-9.71-1.92-8.75-4-17.45-6-26.18-2.44-10.67-4.79-21.37-7.35-32-.28-1.16-1.72-2-2.62-3-.67,1.2-1.71,2.34-1.93,3.62A42.22,42.22,0,0,0,41.86,53q-.22,24.44-.45,48.87c0,2.21-.22,4.57,2.27,5.54C49.18,109.52,54.75,111.44,61.34,113.83ZM38.17,43l-2.26-.3c-4,11.41-6.24,23.32-9.34,35S20.11,101,18.09,113.79c6.31-2.23,11.59-4.11,16.88-6,2.86-1,3.41-3.13,3.43-5.89.11-18,.36-35.9.5-53.84A33.72,33.72,0,0,0,38.17,43ZM4.26,104.94c9.47,2.84,11.73,1.48,13.86-7C22,82.46,26,67.07,30,51.65c.7-2.77,1.11-5.62,1.69-8.6-3.76-.5-4.29,1.63-5.09,3.67-7,17.9-14,35.78-21,53.68C5,101.87,4.69,103.43,4.26,104.94ZM24.94,3.84C27,11.75,28.86,19,30.78,26.4h8.61c8,0,8.14,0,10.26-7.6,1.31-4.72,2.28-9.52,3.56-15ZM51.55,43.46,50,43.78a47.85,47.85,0,0,0,.6,5.51C52.24,56.74,54,64.17,55.7,71.61,58,81.79,60.29,92,62.78,102.14c.34,1.37,1.69,3.34,2.82,3.52,3,.48,6,.12,10.27.09C67.45,84.17,59.5,63.82,51.55,43.46ZM27.8,39H50.88c-2.19-9-3-9.52-15.14-9.25C30.91,29.85,29.2,31.76,27.8,39Zm-5.05-.37,4.95-8.49c-4.8-.82-6.8,1.87-9.42,4.26Zm37.07-3.31-.19-1.41c-2.33-1.66-4-4.77-8.72-3.3,1.64,2.47,2.78,4.81,4.55,6.49C55.93,37.54,58.31,36,59.82,35.32Z"/><path class="cls-1" d="M61.34,113.83c-6.59-2.39-12.16-4.31-17.66-6.45-2.49-1-2.29-3.33-2.27-5.54q.26-24.43.45-48.87A42.22,42.22,0,0,1,42,46.5c.22-1.28,1.26-2.42,1.93-3.62.9,1,2.34,1.89,2.62,3,2.56,10.64,4.91,21.34,7.35,32,2,8.73,4.08,17.43,6,26.18C60.56,107,60.78,109.89,61.34,113.83Z"/><path class="cls-1" d="M38.17,43a33.72,33.72,0,0,1,.73,5.06C38.76,66,38.51,84,38.4,101.94c0,2.76-.57,4.89-3.43,5.89-5.29,1.85-10.57,3.73-16.88,6,2-12.78,5.38-24.39,8.48-36.06s5.37-23.58,9.34-35Z"/><path class="cls-1" d="M4.26,104.94c.43-1.51.75-3.07,1.32-4.54,7-17.9,14-35.78,21-53.68.8-2,1.33-4.17,5.09-3.67-.58,3-1,5.83-1.69,8.6C26,67.07,22,82.46,18.12,97.89,16,106.42,13.73,107.78,4.26,104.94Z"/><path class="cls-1" d="M24.94,3.84H53.21c-1.28,5.44-2.25,10.24-3.56,15-2.12,7.62-2.21,7.6-10.26,7.6H30.78C28.86,19,27,11.75,24.94,3.84Z"/><path class="cls-1" d="M51.55,43.46c8,20.36,15.9,40.71,24.32,62.29-4.24,0-7.32.39-10.27-.09-1.13-.18-2.48-2.15-2.82-3.52C60.29,92,58,81.79,55.7,71.61c-1.7-7.44-3.46-14.87-5.09-22.32a47.85,47.85,0,0,1-.6-5.51Z"/><path class="cls-1" d="M27.8,39c1.4-7.24,3.11-9.15,7.94-9.25C47.85,29.48,48.69,30,50.88,39Z"/><path class="cls-1" d="M22.75,38.63,18.28,34.4C20.9,32,22.9,29.32,27.7,30.14Z"/><path class="cls-1" d="M59.82,35.32c-1.51.65-3.89,2.22-4.36,1.78-1.77-1.68-2.91-4-4.55-6.49,4.74-1.47,6.39,1.64,8.72,3.3Z"/></g></g></svg>
